public/primaries/Delete.svg

<svg id="Layer_1" data-name="Layer 1" xmlns="http://www.w3.org/2000/svg" width="64" height="64" viewBox="0 0 64 64">
  <defs>
    <style>
      .cls-1 {
        fill-rule: evenodd;
      }
    </style>
  </defs>
  <title>Icons 100</title>
  <path class="cls-1" d="M49,20H15a2,2,0,0,1-2-2V16a2,2,0,0,1,2-2h6c0-2.9314.6154-4.6426,1.9846-6.0121s3.076-1.9854,6.0063-1.9854h6.0183c2.93,0,4.637.6157,6.006,1.9854S43,11.0686,43,14h6a2,2,0,0,1,2,2v2A2,2,0,0,1,49,20ZM38.0078,10.994a3.84,3.84,0,0,0-3.0032-.9928H28.9954a3.84,3.84,0,0,0-3.003.9928A3.8475,3.8475,0,0,0,25,14H39A3.8475,3.8475,0,0,0,38.0078,10.994ZM46.99,22a1.0015,1.0015,0,0,1,1.0017,1.0624L46.2278,51.1871A3.0065,3.0065,0,0,1,43.2223,54H20.7751A3.0069,3.0069,0,0,1,17.77,51.1871L16.0053,23.0624A1.0018,1.0018,0,0,1,17.0072,22H46.99Z"/>
</svg>

<svg id="Layer_1" data-name="Layer 1" xmlns="http://www.w3.org/2000/svg" width="64" height="64" viewBox="0 0 64 64"><defs><style>.cls-1{fill-rule:evenodd}</style></defs><title>Icons 100</title><path class="cls-1" d="M49 20H15a2 2 0 0 1-2-2v-2a2 2 0 0 1 2-2h6c0-2.931.615-4.643 1.985-6.012s3.076-1.986 6.006-1.986h6.018c2.93 0 4.637.616 6.006 1.986S43 11.068 43 14h6a2 2 0 0 1 2 2v2a2 2 0 0 1-2 2zm-10.992-9.006a3.84 3.84 0 0 0-3.003-.993h-6.01a3.84 3.84 0 0 0-3.003.993A3.848 3.848 0 0 0 25 14h14a3.848 3.848 0 0 0-.992-3.006zM46.99 22a1.002 1.002 0 0 1 1.002 1.062l-1.764 28.125A3.006 3.006 0 0 1 43.222 54H20.775a3.007 3.007 0 0 1-3.005-2.813l-1.765-28.125A1.002 1.002 0 0 1 17.007 22H46.99z"/></svg>
